!!!COM: Falla (y Matheu), Manuel de
!!!OTL: Fantasía Bética (Betic Fantasy) for Piano
!!!OMV:
!!!example: 305
!!!work: Fal-7
**kern	**kern	**dynam
*part1	*part1	*part1
*staff2	*staff1	*
*I"Piano	*	*
*I'Pno.	*	*
*clefF4	*clefG2	*
*k[f#c#g#d#a#]	*k[f#c#g#d#a#]	*
*B:	*B:	*
*M3/8	*M3/8	*
*MM78	*MM78	*
=204	=204	=204
(8GG#L	8g#L	ppp
8F#	8a#	.
8BJ)	8f#J	.
=205	=205	=205
(8C#L	8g#	.
8G#	4e	.
8c#J)	.	.
=206	=206	=206
(8GG#L	4f#	.
8F#	.	.
8BJ)	[8d#	.
=207	=207	=207
(8C#L	8d#]	.
8G#	4e	.
8c#J)	.	.
=208	=208	=208
(8GG#L	8g#L	.
8F#	8a#	.
8BJ)	8f#J	.
=209	=209	=209
(8C#L	8g#	.
8G#	4e	.
8c#J)	.	.
=210	=210	=210
(8GG#L	4f#	.
8F#	.	.
8BJ	[8d#	.
=211	=211	=211
8C#L	8d#]	.
8An	4c#	.
8G#J)	.	.
=212	=212	=212
(8GG#L	8f#L	.
8F#	8e	.
8BJ	8d#J	.
=213	=213	=213
8C#L	8c#	.
8An	4d#	.
8G#J)	.	.
=214	=214	=214
(8GG#L	4B	.
8F#	.	.
8BJ	[8c#	.
=215	=215	=215
8C#L	8c#]	.
8An	4d#	.
8G#J)	.	.
=216	=216	=216
(8GG#L	8f#L	.
8F#	8e	.
8BJ	8d#J	.
=217	=217	=217
8C#L	8c#	.
8An	4d#	.
8G#J)	.	.
=218	=218	=218
(8GG#L	4B	.
8G#	.	.
8F#J	[8An	.
=219	=219	=219
8C#L	8A]	.
8D#	4c#	.
8EJ)	.	.
=220	=220	=220
(8GG#L	8BL	.
8C#	8An	.
8D#J	8G#J	.
=221	=221	=221
8EL	8An	.
8F#	4c#	.
8D#J)	.	.
=222	=222	=222
(8GG#L	4B	.
8G#	.	.
8F#J)	[8An	.
=	=	=
*-	*-	*-
!!!system-decoration: {(s1,s2)}
!!!CDT: 1876/11/23-1946/11/14
!!!CBL: Cádiz, Spain
!!!CDL: Alta Gracia, Argentina
!!!CNT: Spanish
!!!AGN: Instrumental; Keyboard
!!!MCN:
!!!MDT: 1920/02/20
!!!MGN:
!!!MLC: New York, New York, United States of America
!!!MPD: 1920
!!!MPN: Rubinstein, Arthur
!!!ODT: 1919
!!!PDT: 1922
!!!excerpt-start-measure: 204
!!!excerpt-end-measure: 222
!!!excerpt-start-time: 5:22
!!!excerpt-end-time: 5:34
!!!EEV: 2020/01/25
!!!ONB: Converted from MusicXML on 2020/01/25
